!!!!SEGMENT: pl-kk--kk-i-131--002_anonim--rorate.krn
!!!cenid: 16xx:737
!!!COM: Anonim
!!!COM-rismID: pe30004985
!!!CDT:
!!!CNT:
!!!OTL: Rorate
!!!PDT:
!!!AGN: Sacred
!!!SMS-siglum: PL-Kk
!!!SMS-shelfmark: Kk.I.131
!!!SMS-shelfwork: 002 W
!!!SMS-variant:
!!!SMS-altvar:
!!!NIFC-rismSourceID: 1001145069
!!!NIFC-rismChildID: 1001145073
!!!NIFC-islandoraID: pl-kk:3553
!!!URL-pdf-islandora: https://repozytorium.nifc.pl/islandora/object/pl-kk%3A3553/datastream/PDF/view
!!!URL-scan: https://polish.musicsources.pl/pl/lokalizacje/galeria/rekopisy/5761 @EN{Scan on Polish Music Sources Website} @PL{Skany w portalu Dziedzictwo Muzyki Polskiej w otwartym dostępie}
!!!ONB-nifc: UWAGA: utwory w zbiorze: 1. Beatus vir qui inventus est, 2. Rorate
!!!AIN: 1 tenor 1 viola
!!!key:
**kern	**kern
*part2	*part1
*staff2	*staff1
*Iviola	*Itenor
*I"Basso pro Viola	*I"Tenore
*I'vlne	*I'T
*clefF4	*clefC4
*k[b-]	*k[b-]
*d:	*d:
*M2/2	*M2/2
*met(c|)	*met(c|)
=1	=1
!LO:TX:t=P:all\right:problem	!
!LO:TX:t=P:problem=oznaczenie tonacji B- BB-	!
8F\L	1ryy
8G\	.
8A\	.
8F\J	.
8E\L	.
8D\	.
8E\	.
8C\J	.
=2	=2
8FF/L	1ryy
8GG/	.
8AA/	.
8FF/J	.
8C/L	.
8D/	.
8E/	.
8C/J	.
=3	=3
8F\L	1ryy
8G\	.
8A\	.
8B-\J	.
!LO:TX:t=P:problem=mixed beam	!
8c\L	.
8C/	.
8E/	.
8C/J	.
=4	=4
8F\L	1ryy
8E\	.
8F\	.
8D\J	.
8G\L	.
8F\	.
8G\	.
8E\J	.
=5	=5
8A\L	1ryy
8G\	.
8A\	.
8E\J	.
!LO:TX:t=P:problem=mixed beam	!
8F\L	.
8D\	.
8G\	.
8GG/J	.
=6	=6
!LO:TX:t=P:problem=mixed beam	!
8C/L	1ryy
8c\	.
8B-\	.
8A\J	.
8G\L	.
16F\L	.
16G\JJ	.
16A\LL	.
16G\	.
16A\	.
16F\JJ	.
=7	=7
!LO:TX:t=P:problem=mixed beam	!
8c\L	1ryy
8C/J	.
16r	.
16F\LL	.
16A\	.
16F\JJ	.
!LO:TX:t=P:problem=mixed beam	!
8B-\L	.
8BB-/J	.
16r	.
16G\LL	.
16B-\	.
16G\JJ	.
=8	=8
!LO:TX:t=P:problem=mixed beam	!
8c\L	1ryy
8C/J	.
16r	.
16AA/LL	.
16C/	.
16AA/JJ	.
8D/L	.
8BB-/J	.
4C/	.
!!LO:LB:g=original
=9	=9
8FF/L	1ryy
8FF/J	.
4r	.
8r	.
8c\L	.
8c\	.
8B-\J	.
=10	=10
8A\L	1ryy
16F\L	.
16G\JJ	.
16A\LL	.
16G\	.
16A\	.
16F\JJ	.
!LO:TX:t=P:problem=mixed beam	!
8c\L	.
8C/J	.
16r	.
16F\LL	.
16A\	.
16F\JJ	.
=11	=11
!LO:TX:t=P:problem=mixed beam	!
8B-\L	1ryy
8BB-/J	.
16r	.
16G\LL	.
16B-\	.
16G\JJ	.
!LO:TX:t=P:problem=mixed beam	!
8c\L	.
8C/J	.
16r	.
16AA/LL	.
16C/	.
16AA/JJ	.
=12	=12
8D/L	1ryy
8BB-/J	.
4C/	.
8FF/L	.
8FF/J	.
4r	.
=13	=13
1r	1ryy
=14	=14
1r	1ryy
=15	=15
2r	1ryy
4F\	.
8G\L	.
8A\J	.
=16	=16
4B-\	1ryy
4A\	.
4G\	.
8A\L	.
8B-\J	.
=17	=17
4c\	1ryy
4F\	.
4c\	.
4C/	.
=18	=18
4r	1ryy
4C#X/	.
4C#/	.
4C#/	.
!!LO:LB:g=original
=19	=19
4D\	1ryy
4F\	.
2E\	.
=20	=20
4AA/	1ryy
4FF/	.
4BB-/	.
4BB-/	.
=21	=21
4AA/	1ryy
4BB-/	.
2C/	.
=22	=22
1FF/	1ryy
!!LO:LB:g=original
=23||	=23||
*k[b-]	*k[b-]
*M3/4	*M3/4
!LO:TX:b:t=Benedixisti	!
4D\	2.ryy
4F\	.
4G\	.
=24	=24
*2\right	*
2A\	2.ryy
4G\	.
=25	=25
4.A\	2.ryy
8A\	.
4A\	.
=26	=26
4r	2.ryy
4A\	.
4G\	.
=27	=27
4F\	2.ryy
4E\	.
4D\	.
=28	=28
4G\	2.ryy
2A\	.
=29	=29
4D\	2.ryy
4D\	.
4D\	.
=30	=30
4E\	2.ryy
8C/L	.
8D/	.
8E/	.
8C/J	.
=31	=31
4.F\	2.ryy
8BB-/	.
4C/	.
=32	=32
4FF/	2.ryy
8F\L	.
8G\	.
8A\	.
8E\J	.
=33	=33
4F\	2.ryy
4FF/	.
4r	.
=34	=34
4r	2.ryy
8F\L	.
8G\	.
8A\	.
8E\J	.
!!LO:LB:g=original
=35	=35
4F\	2.ryy
4FF/	.
4r	.
=36	=36
4r	2.ryy
8F\L	.
8G\	.
8A\	.
8F\J	.
=37	=37
2B-\	2.ryy
4G\	.
=38	=38
8c\L	2.ryy
8d\	.
8c\	.
8B-\	.
8A\	.
16G\L	.
16F\JJ	.
=39	=39
4B-\	2.ryy
4c\	.
4C/	.
=40	=40
4FF/	2.ryy
4F\	.
4E\	.
=41	=41
2F\	2.ryy
4C/	.
=42	=42
4F\	2.ryy
4E\	.
4D\	.
=43	=43
4.C/	2.ryy
8C/	.
4C/	.
=44	=44
4C#X/	2.ryy
4C#/	.
4C#/	.
=45	=45
2D\	2.ryy
4F\	.
=46	=46
4D\	2.ryy
2E\	.
=47	=47
4AA/	2.ryy
4F\	.
4F\	.
=48	=48
2B-\	2.ryy
4G\	.
=49	=49
2A\	2.ryy
4F\	.
!!LO:LB:g=original
=50	=50
4G\	2.ryy
4A\	.
4AA/	.
=51	=51
4D\	2.ryy
4F\	.
4F\	.
=52	=52
2B-\	2.ryy
4G\	.
=53	=53
2A\	2.ryy
4F\	.
=54	=54
4G\	2.ryy
4A\	.
4AA/	.
=55	=55
!LO:TX:a:t=Rorate\nDa Capo	!
2.D/	2.ryy
==	==
*-	*-
!!!system-decoration: s1,s2
!!!EED: Leszek Kubiak
!!!EEV: 2021-02-16
!!!ENC: Krzysztof Stępień
!!!END: 2021-02-11
!!!YEC: Copyright 2022 Narodowy Instytut Fryderyka Chopina (https://polishscores.org)
!!!YEM: License CC-BY-4.0 (https://creativecommons.org/licenses/by/4.0)
